X: 2050
T: Ask My Father
R: slide
M: 12/8
K: Gmajor
M:6/8
|:A2 G|F2 D DED|A2 G F2 D|ABA B2 G|ABA A2 G|
F2 D DED|A2 G F2 D|G2 d cAF|G3:|
|:G2 e|f2 d d2 e|f2 d cAG|A3 BAG|ABA A2 e|
f2 d d2 e|fed cAF|GAG AGF|G3:|

